X:1
T:Senza Te, sacra Regina
T:Adam de Antiquis Venetus
T:Senza Te, sacra Regina
C:Adam de Antiquis Venetus
%%score [ 1 2 3 4 ]
L:1/8
Q:1/4=204
M:2/2
K:Eb
V:1 treble nm="Soprano" snm="S"
V:2 treble nm="Alto" snm="A"
V:3 treble-8 nm="Tenor" snm="T"
V:4 bass nm="Bass" snm="B"
V:1
 c4 c4 | B4 e4 | d4 c4 | =B4 B4 | e4 d4 | c4 B4 |[M:3/2] c8 =B4 |[M:2/2] c4 c4 | e4 d4 | c4 B4 | %10
w: Sen- za|Te, sa-|cra Re-|gi- na,|Non si|può in|ciel sa-|li- re.|L'al- ma|sua non|
w: ||||||||||
[M:3/2] c8 =B4 |[M:2/2] c4 c4 | G4 G4 | B4 A4 |[M:3/2] B4 c4 B4 |[M:2/2] =A4 !fermata!A4 | c4 c4 | %17
w: può pe-|ri- re|Che a Te|ser- ve,a|Te _ s'in-|chi- na.|Sen- za|
w: |||||||
 B4 e4 | d4 c4 | =B4 B4 | e4 d4 | c4 B4 |[M:3/2] c8 =B4 |[M:2/2] c4 c4 |: c4 c4 | B4 e4 | d4 c4 | %27
w: Te, sa-|cra Re-|gi- na,|Non si|può in|ciel sa-|li- re.|Tu sei|quel- la|ver- gi-|
w: |||||||Tu sei|quel- la|chia- ra|
 =B4 B4 | e4 d4 | c4 B4 |[M:3/2] c8 =B4 |[M:2/2] c4 c4 :| e4 d4 | c4 B4 |[M:3/2] c8 =B4 | %35
w: nel- la|Che por-|tas- ti il|Re- den-|to- re,|Pre- ga il|Tuo di-|vin Sig-|
w: stel- la|Che per|tut- to|dai splen-|do- re||||
[M:2/2] c4 c4 | G4 G4 | B4 A4 |[M:3/2] B4 c4 B4 |[M:2/2] =A4 !fermata!A4 | c4 c4 | B4 e4 | d4 c4 | %43
w: no- re|Ver- so|noi a pie-|tà _ s'in-|cli- na.|Sen- za|Te, sa-|cra Re-|
w: ||||||||
 =B4 B4 | e4 d4 | c4 B4 |[M:3/2] c8 =B4 |[M:2/2] c4 c4 |: c4 c4 | B4 e4 | d4 c4 | =B4 B4 | e4 d4 | %53
w: gi- na,|Non si|può in|ciel sa-|li- re.|Tu sei|ma- dre,in|ciel sa-|li- ta|Con il|
w: |||||E d'un|man- to|sei ves-|ti- ta|Dì pie-|
 c4 B4 |[M:3/2] c8 =B4 |[M:2/2] c4 c4 :| e4 d4 | c4 B4 |[M:3/2] c8 =B4 |[M:2/2] c4 c4 | G4 G4 | %61
w: cor- po e|l'al- ma|san- ta,|Per Te il|cor de|l'an- giol|can- ta:|A- ve|
w: ta- de|tut- ta|quan- ta,||||||
 B4 A4 |[M:3/2] B4 c4 B4 |[M:2/2] =A4 !fermata!A4 | c4 c4 | B4 e4 | d4 c4 | =B4 B4 | e4 d4 | %69
w: Stel- la|mat- * tu-|ti- na!|Sen- za|Te, sa-|cra Re-|gi- na,|Non si|
w: ||||||||
 c4 B4 |[M:3/2] c8 =B4 |[M:2/2] c4 d4 | e4 d4 | c8 | =B8 |] %75
w: può in|ciel sa-|li- re,in|ciel sa-|li-|re.|
w: ||||||
V:2
 G4 G4 | G4 G4 | B4 G4 | G4 G4 | G4 B4 | G4 G4 |[M:3/2] F4 G8 |[M:2/2] G4 G4 | G4 B4 | G4 G4 | %10
w: Sen- za|Te, sa-|cra Re-|gi- na,|Non si|può in|ciel sa-|li- re.|L'al- ma|sua non|
w: ||||||||||
[M:3/2] F4 G8 |[M:2/2] G4 G4 | E4 E4 | E4 F4 |[M:3/2] D4 C2 A,2 B,4 |[M:2/2] C4 !fermata!F4 | %16
w: può pe-|ri- re|Che a Te|ser- ve,a|Te _ _ s'in-|chi- na.|
w: ||||||
 G4 G4 | G4 G4 | B4 G4 | G4 G4 | G4 B4 | G4 G4 |[M:3/2] F4 G8 |[M:2/2] G4 G4 |: G4 G4 | G4 G4 | %26
w: Sen- za|Te, sa-|cra Re-|gi- na,|Non si|può in|ciel sa-|li- re.|Tu sei|quel- la|
w: ||||||||Tu sei|quel- la|
 B4 G4 | G4 G4 | G4 B4 | G4 G4 |[M:3/2] F4 G8 |[M:2/2] G4 G4 :| G4 B4 | G4 G4 |[M:3/2] F4 G8 | %35
w: ver- gi-|nel- la|Che por-|tas- ti il|Re- den-|to- re,|Pre- ga il|Tuo di-|vin Sig-|
w: chia- ra|stel- la|Che per|tut- to|dai splen-|do- re||||
[M:2/2] G4 G4 | E4 E4 | E4 F4 |[M:3/2] D4 C2 A,2 B,4 |[M:2/2] C4 !fermata!F4 | G4 G4 | G4 G4 | %42
w: no- re|Ver- so|noi a pie-|tà _ _ s'in-|cli- na.|Sen- za|Te, sa-|
w: |||||||
 B4 G4 | G4 G4 | G4 B4 | G4 G4 |[M:3/2] F4 G8 |[M:2/2] G4 G4 |: G4 G4 | G4 G4 | B4 G4 | G4 G4 | %52
w: cra Re-|gi- na,|Non si|può in|ciel sa-|li- re.|Tu sei|ma- dre,in|ciel sa-|li- ta|
w: ||||||E d'un|man- to|sei ves-|ti- ta|
 G4 B4 | G4 G4 |[M:3/2] F4 G8 |[M:2/2] G4 G4 :| G4 B4 | G4 G4 |[M:3/2] F4 G8 |[M:2/2] G4 G4 | %60
w: Con il|cor- po e|l'al- ma|san- ta,|Per Te il|cor de|l'an- giol|can- ta:|
w: Dì pie-|ta- de|tut- ta|quan- ta,|||||
 E4 E4 | E4 F4 |[M:3/2] D4 C2 A,2 B,4 |[M:2/2] C4 !fermata!F4 | G4 G4 | G4 G4 | B4 G4 | G4 G4 | %68
w: A- ve|Stel- la|mat- * * tu-|ti- na!|Sen- za|Te, sa-|cra Re-|gi- na,|
w: ||||||||
 G4 B4 | G4 G4 |[M:3/2] F4 G8 |[M:2/2] G4 B4 | G4 B4 | G8 | G8 |] %75
w: Non si|può in|ciel sa-|li- re,in|ciel sa-|li-|re.|
w: |||||||
V:3
 c4 c4 | d4 e4 | f4 e4 | d4 d4 | e4 f4 | e4 d4 |[M:3/2] c4 d8 |[M:2/2] c4 c4 | e4 f4 | e4 d4 | %10
w: Sen- za|Te, sa-|cra Re-|gi- na,|Non si|può in|ciel sa-|li- re.|L'al- ma|sua non|
w: ||||||||||
[M:3/2] c4 d8 |[M:2/2] c4 c4 | B4 B4 | B4 c4 |[M:3/2] B4 e4 e4 |[M:2/2] f2 ed !fermata!c4 | c4 c4 | %17
w: può pe-|ri- re|Che a Te|ser- ve,a|Te _ s'in-|chi- * * na.|Sen- za|
w: |||||||
 d4 e4 | f4 e4 | d4 d4 | e4 f4 | e4 d4 |[M:3/2] c4 d8 |[M:2/2] c4 c4 |: c4 c4 | d4 e4 | f4 e4 | %27
w: Te, sa-|cra Re-|gi- na,|Non si|può in|ciel sa-|li- re.|Tu sei|quel- la|ver- gi-|
w: |||||||Tu sei|quel- la|chia- ra|
 d4 d4 | e4 f4 | e4 d4 |[M:3/2] c4 d8 |[M:2/2] c4 c4 :| e4 f4 | e4 d4 |[M:3/2] c4 d8 | %35
w: nel- la|Che por-|tas- ti il|Re- den-|to- re,|Pre- ga il|Tuo di-|vin Sig-|
w: stel- la|Che per|tut- to|dai splen-|do- re||||
[M:2/2] c4 c4 | B4 B4 | B4 c4 |[M:3/2] B4 e4 e4 |[M:2/2] f2 ed !fermata!c4 | c4 c4 | d4 e4 | %42
w: no- re|Ver- so|noi a pie-|tà _ s'in-|cli- * * na.|Sen- za|Te, sa-|
w: |||||||
 f4 e4 | d4 d4 | e4 f4 | e4 d4 |[M:3/2] c4 d8 |[M:2/2] c4 c4 |: c4 c4 | d4 e4 | f4 e4 | d4 d4 | %52
w: cra Re-|gi- na,|Non si|può in|ciel sa-|li- re.|Tu sei|ma- dre,in|ciel sa-|li- ta|
w: ||||||E d'un|man- to|sei ves-|ti- ta|
 e4 f4 | e4 d4 |[M:3/2] c4 d8 |[M:2/2] c4 c4 :| e4 f4 | e4 d4 |[M:3/2] c4 d8 |[M:2/2] c4 c4 | %60
w: Con il|cor- po e|l'al- ma|san- ta,|Per Te il|cor de|l'an- giol|can- ta:|
w: Dì pie-|ta- de|tut- ta|quan- ta,|||||
 B4 B4 | B4 c4 |[M:3/2] B4 e4 e4 |[M:2/2] f2 ed !fermata!c4 | c4 c4 | d4 e4 | f4 e4 | d4 d4 | %68
w: A- ve|Stel- la|mat- * tu-|ti- * * na!|Sen- za|Te, sa-|cra Re-|gi- na,|
w: ||||||||
 e4 f4 | e4 d4 |[M:3/2] c4 d8 |[M:2/2] e4 f4 | e4 f4 | e8 | d8 |] %75
w: Non si|può in|ciel sa-|li- re,in|ciel sa-|li-|re.|
w: |||||||
V:4
 C,4 C,4 | G,4 C4 | B,4 C4 | G,4 G,4 | C4 B,4 | C4 G,4 |[M:3/2] A,4 G,8 |[M:2/2] C,4 C,4 | C4 B,4 | %9
w: Sen- za|Te, sa-|cra Re-|gi- na,|Non si|può in|ciel sa-|li- re.|L'al- ma|
w: |||||||||
 C4 G,4 |[M:3/2] A,4 G,8 |[M:2/2] C,4 C,4 | E,4 E,4 | G,4 F,4 |[M:3/2] G,4 A,4 G,4 | %15
w: sua non|può pe-|ri- re|Che a Te|ser- ve,a|Te _ s'in-|
w: ||||||
[M:2/2] C4 !fermata!C4 | C,4 C,4 | G,4 C4 | B,4 C4 | G,4 G,4 | C4 B,4 | C4 G,4 |[M:3/2] A,4 G,8 | %23
w: chi- na.|Sen- za|Te, sa-|cra Re-|gi- na,|Non si|può in|ciel sa-|
w: ||||||||
[M:2/2] C,4 C,4 |: C,4 C,4 | G,4 C4 | B,4 C4 | G,4 G,4 | C4 B,4 | C4 G,4 |[M:3/2] A,4 G,8 | %31
w: li- re.|Tu sei|quel- la|ver- gi-|nel- la|Che por-|tas- ti il|Re- den-|
w: |Tu sei|quel- la|chia- ra|stel- la|Che per|tut- to|dai splen-|
[M:2/2] C,4 C,4 :| C4 B,4 | C4 G,4 |[M:3/2] A,4 G,8 |[M:2/2] C,4 C,4 | E,4 E,4 | G,4 F,4 | %38
w: to- re,|Pre- ga il|Tuo di-|vin Sig-|no- re|Ver- so|noi a pie-|
w: do- re|||||||
[M:3/2] G,4 A,4 G,4 |[M:2/2] C4 !fermata!C4 | C,4 C,4 | G,4 C4 | B,4 C4 | G,4 G,4 | C4 B,4 | %45
w: tà _ s'in-|cli- na.|Sen- za|Te, sa-|cra Re-|gi- na,|Non si|
w: |||||||
 C4 G,4 |[M:3/2] A,4 G,8 |[M:2/2] C,4 C,4 |: C,4 C,4 | G,4 C4 | B,4 C4 | G,4 G,4 | C4 B,4 | %53
w: può in|ciel sa-|li- re.|Tu sei|ma- dre,in|ciel sa-|li- ta|Con il|
w: |||E d'un|man- to|sei ves-|ti- ta|Dì pie-|
 C4 G,4 |[M:3/2] A,4 G,8 |[M:2/2] C,4 C,4 :| C4 B,4 | C4 G,4 |[M:3/2] A,4 G,8 |[M:2/2] C,4 C,4 | %60
w: cor- po e|l'al- ma|san- ta,|Per Te il|cor de|l'an- giol|can- ta:|
w: ta- de|tut- ta|quan- ta,|||||
 E,4 E,4 | G,4 F,4 |[M:3/2] G,4 A,4 G,4 |[M:2/2] C4 !fermata!C4 | C,4 C,4 | G,4 C4 | B,4 C4 | %67
w: A- ve|Stel- la|mat- * tu-|ti- na!|Sen- za|Te, sa-|cra Re-|
w: |||||||
 G,4 G,4 | C4 B,4 | C4 G,4 |[M:3/2] A,4 G,8 |[M:2/2] C4 B,4 | C4 B,4 | C8 | G,8 |] %75
w: gi- na,|Non si|può in|ciel sa-|li- re,in|ciel sa-|li-|re.|
w: ||||||||

